assets/img/braze_icons/bookmark-add.svg

<svg fill="none" height="24" viewBox="0 0 24 24" width="24" xmlns="http://www.w3.org/2000/svg"><path clip-rule="evenodd" d="m14.2413 2h-4.4826c-.80496-.00001-1.46933-.00002-2.01052.04419-.5621.04593-1.07881.14449-1.56414.39179-.75265.38349-1.36457.99541-1.74806 1.74806-.2473.48533-.34586 1.00204-.39179 1.56414-.04421.54119-.0442 1.20554-.04419 2.01051v13.24131c0 .3565.18976.686.49807.8649.30832.1789.68857.1802.99807.0033l6.50386-3.7164 6.5039 3.7164c.3095.1769.6897.1756.998-.0033s.4981-.5084.4981-.8649v-13.24127c0-.80497 0-1.46936-.0442-2.01055-.0459-.5621-.1445-1.07881-.3918-1.56414-.3835-.75265-.9954-1.36457-1.748-1.74806-.4854-.2473-1.0021-.34586-1.5642-.39179-.5412-.04421-1.2055-.0442-2.0105-.04419zm-2.2413 4c.5523 0 1 .44772 1 1v2h2c.5523 0 1 .44772 1 1 0 .5523-.4477 1-1 1h-2v2c0 .5523-.4477 1-1 1s-1-.4477-1-1v-2h-2c-.55228 0-1-.4477-1-1 0-.55228.44772-1 1-1h2v-2c0-.55228.4477-1 1-1z" fill="#801ed7" fill-rule="evenodd"/></svg>

<svg width="24" height="24" viewBox="0 0 24 24" fill="none" xmlns="http://www.w3.org/2000/svg">
<path fill-rule="evenodd" clip-rule="evenodd" d="M14.2413 2H9.7587C8.95374 1.99999 8.28937 1.99998 7.74818 2.04419C7.18608 2.09012 6.66937 2.18868 6.18404 2.43598C5.43139 2.81947 4.81947 3.43139 4.43598 4.18404C4.18868 4.66937 4.09012 5.18608 4.04419 5.74818C3.99998 6.28937 3.99999 6.95372 4 7.75869V21C4 21.3565 4.18976 21.686 4.49807 21.8649C4.80639 22.0438 5.18664 22.0451 5.49614 21.8682L12 18.1518L18.5039 21.8682C18.8134 22.0451 19.1936 22.0438 19.5019 21.8649C19.8102 21.686 20 21.3565 20 21V7.75873C20 6.95376 20 6.28937 19.9558 5.74818C19.9099 5.18608 19.8113 4.66937 19.564 4.18404C19.1805 3.43139 18.5686 2.81947 17.816 2.43598C17.3306 2.18868 16.8139 2.09012 16.2518 2.04419C15.7106 1.99998 15.0463 1.99999 14.2413 2ZM12 6C12.5523 6 13 6.44772 13 7V9H15C15.5523 9 16 9.44772 16 10C16 10.5523 15.5523 11 15 11H13V13C13 13.5523 12.5523 14 12 14C11.4477 14 11 13.5523 11 13V11H9C8.44772 11 8 10.5523 8 10C8 9.44772 8.44772 9 9 9H11V7C11 6.44772 11.4477 6 12 6Z" fill="#801ED7"/>
</svg>
